symbolic/22x22/actions/view-calendar-month.svg

<svg xmlns="http://www.w3.org/2000/svg" width="22" height="22"><defs><style id="current-color-scheme" type="text/css"></style></defs><path style="fill:currentColor;color:#323a41" d="M10 10v2h2v-2zm-3 0v2h2v-2zm-3 0v2h2v-2zm6-3v2h2V7zM7 7v2h2V7zM4 7v2h2V7zm6-3v2h2V4zM7 4v2h2V4zM4 4v2h2V4zM3 1C1 1 1 3 1 3v12h14V3s0-2-2-2zm0 2h10v10H3z" transform="translate(3 3)"/></svg>

<svg xmlns="http://www.w3.org/2000/svg" width="22" height="22" version="1.1">
 <defs>
  <style id="current-color-scheme" type="text/css">
   .ColorScheme-Text { color:#323a41; } .ColorScheme-Highlight { color:#4285f4; } .ColorScheme-NeutralText { color:#ff9800; } .ColorScheme-PositiveText { color:#4caf50; } .ColorScheme-NegativeText { color:#f44336; }
  </style>
 </defs>
 <g transform="translate(3,3)">
  <path style="fill:currentColor" class="ColorScheme-Text" d="M 10,10 V 12 H 12 V 10 Z M 7,10 V 12 H 9 V 10 Z M 4,10 V 12 H 6 V 10 Z M 10,7 V 9 H 12 V 7 Z M 7,7 V 9 H 9 V 7 Z M 4,7 V 9 H 6 V 7 Z M 10,4 V 6 H 12 V 4 Z M 7,4 V 6 H 9 V 4 Z M 4,4 V 6 H 6 V 4 Z M 3,1 C 1,1 1,3 1,3 V 15 H 15 V 3 C 15,3 15,1 13,1 Z M 3,3 H 13 V 13 H 3 Z"/>
 </g>
</svg>
